X:11
T:GB/7b/11A Our Captain Calls Version 2 of 2 
C:Mrs Golds (c. 60), Washington, Sussex, XII. 07
Z:Transcribed by Simon Furey and Lewis Jones L:1/4
M:4/4
I:linebreak $
K:D
D | F D F/G/ A |[M:6/4] B2 B A2 D |[M:4/4] C D z A | d B c d/c/ |$ B2 A2 |
[M:6/4] F/E/ D F/G/ A z A |[M:4/4] d B c d/c/ | B2 A2 |$[M:6/4] F/E/ D F/G/ A z A | [M:4/4] !fermata!d A B/A/G/F/ |[M:3/4] E F G/B/ | A2 D | C D2 |]

